src/assets/images/map/markers/not_found/icon_24.svg

<?xml version="1.0" encoding="UTF-8" standalone="no"?>
<svg
   xmlns:dc="http://purl.org/dc/elements/1.1/"
   xmlns:cc="http://creativecommons.org/ns#"
   xmlns:rdf="http://www.w3.org/1999/02/22-rdf-syntax-ns#"
   xmlns:svg="http://www.w3.org/2000/svg"
   xmlns="http://www.w3.org/2000/svg"
   xmlns:sodipodi="http://sodipodi.sourceforge.net/DTD/sodipodi-0.dtd"
   xmlns:inkscape="http://www.inkscape.org/namespaces/inkscape"
   width="128pt"
   height="164pt"
   viewBox="0 0 128 164"
   version="1.1"
   id="svg5"
   sodipodi:docname="icon_24.svg"
   inkscape:version="0.92.1 r15371">
  <metadata
     id="metadata11">
    <rdf:RDF>
      <cc:Work
         rdf:about="">
        <dc:format>image/svg+xml</dc:format>
        <dc:type
           rdf:resource="http://purl.org/dc/dcmitype/StillImage" />
      </cc:Work>
    </rdf:RDF>
  </metadata>
  <defs
     id="defs9" />
  <sodipodi:namedview
     pagecolor="#ffffff"
     bordercolor="#666666"
     borderopacity="1"
     objecttolerance="10"
     gridtolerance="10"
     guidetolerance="10"
     inkscape:pageopacity="0"
     inkscape:pageshadow="2"
     inkscape:window-width="836"
     inkscape:window-height="480"
     id="namedview7"
     showgrid="false"
     inkscape:zoom="1.0792683"
     inkscape:cx="85.333333"
     inkscape:cy="109.33333"
     inkscape:window-x="0"
     inkscape:window-y="0"
     inkscape:window-maximized="0"
     inkscape:current-layer="surface1" />
  <g
     id="surface1">
    <path
       style="fill:#00ff00;fill-opacity:1;fill-rule:nonzero;stroke:none"
       d="m 64.554688,124.84766 5.195312,-1.47657 2.59375,0.73829 h 18.171875 v 13.29687 H 71.230469 l -3.335938,2.21484 v -0.36718 l -2.597656,-2.95704 1.484375,-4.0625 2.96875,1.10938 h 16.316406 v -5.17188 H 69.007812 L 54.542969,131.125 c 0.496093,-0.49219 1.113281,-3.9375 1.855469,-10.33984 0.742187,0.49218 1.234374,2.21484 1.480468,5.16797 l 1.855469,0.74218 4.820313,-1.84765 m 0.371093,-48.757816 c 0.992188,0 1.484375,1.355468 1.484375,4.0625 l 1.484375,4.433594 c 0.492188,2.953124 -0.371093,5.417968 -2.597656,7.386718 -4.449219,3.941406 -10.753906,5.910156 -18.914063,5.910156 h -0.742187 c -3.210937,-0.246093 -6.550781,-1.601562 -10.011719,-4.0625 l -0.371094,-0.371093 -4.078124,-5.539063 c -0.742188,-2.707031 -0.25,-5.171875 1.480468,-7.386718 l 2.96875,-2.957032 H 34.515625 L 33.402344,77.9375 30.4375,78.304688 c -1.980469,0 -2.226562,-0.492188 -0.742188,-1.476563 l 4.449219,-2.214844 4.453125,-1.476562 2.964844,0.738281 5.933594,0.738281 17.058594,1.476563 h 0.371093 M 75.3125,9.234375 70.859375,8.863281 56.769531,10.710938 50.835938,12.558594 c -7.914063,3.695312 -14.09375,8.617187 -18.542969,14.773437 l -5.9375,10.714844 -4.449219,14.773437 -1.113281,9.234376 v 13.667968 l 2.226562,15.511719 7.789063,25.117185 6.675781,10.71094 c 2.964844,4.1875 4.820313,7.75781 5.5625,10.71094 1.234375,4.43359 3.707031,8.49609 7.417969,12.1914 l 6.304687,4.80078 13.351563,0.3711 h 1.109375 l 3.339843,-6.28125 0.742188,6.28125 17.058594,-0.3711 3.335937,-3.32421 2.597657,-9.97266 c 0.246093,-3.69531 2.226562,-9.35938 5.933592,-16.99219 3.46094,-7.14062 6.42969,-11.9414 8.90235,-14.40625 1.73046,-1.47656 2.22265,-5.41406 1.48046,-11.816404 l -0.36718,-1.109375 h -1.85547 c -2.96875,2.953129 -6.55078,4.433599 -10.75391,4.433599 -3.95703,0 -7.417968,-1.23438 -10.386718,-3.695318 L 86.808594,118.9375 H 72.34375 l -3.335938,-1.84766 -2.96875,-1.47656 -2.59375,1.10938 -3.339843,-1.84766 0.742187,-3.32422 2.226563,-1.48047 0.371093,0.3711 c -1.484374,1.23047 -1.855468,2.70703 -1.113281,4.43359 0.492188,-0.98437 1.484375,-1.48047 2.964844,-1.48047 h 1.484375 c 1.730469,2.21875 4.203125,3.32813 7.417969,3.32813 l 4.820312,-2.58594 V 86.800781 c 0,-7.386719 4.078125,-12.066406 12.238281,-14.035156 L 112.39844,71.65625 h 6.30469 l -0.3711,-14.773438 C 117.09375,48.265625 114.62109,40.753906 110.91406,34.351562 107.20703,27.457031 99.789062,22.777344 88.664062,20.316406 l 0.371094,39.519532 -2.226562,5.910156 c -1.730469,1.480468 -3.585938,2.21875 -5.5625,2.21875 H 74.941406 L 75.3125,9.234375 m 43.39063,21.054687 2.59375,4.800782 c 2.96875,6.402344 4.94531,13.296875 5.93359,20.683594 l 0.74219,8.496093 v 4.800781 l -1.10938,5.910157 c -0.99219,2.710937 -2.84375,4.558593 -5.5664,5.542969 h -3.33594 l 0.74219,4.0625 -0.74219,4.800781 3.33594,2.585937 0.74218,0.738282 1.48438,4.433593 v 0.738281 l 0.37109,9.234378 -2.59765,7.01953 -2.22266,2.58594 c -1.73047,1.47656 -4.08203,5.41406 -7.04688,11.8164 -3.21484,6.40235 -4.82031,10.83594 -4.82031,13.29688 -0.25,6.15625 -1.73047,11.45312 -4.45312,15.88672 -2.71875,3.9375 -6.054691,5.90625 -10.011722,5.90625 L 75.3125,164 73.457031,163.62891 71.230469,164 H 70.121094 L 54.542969,163.26172 43.046875,155.50391 C 38.84375,150.57812 36,145.41016 34.515625,139.99219 l -5.5625,-9.60547 -6.304687,-9.97266 -0.371094,-1.10937 h -3.335938 l -5.5625,-1.47656 -3.339844,-4.4336 L 7.8125,110.07031 C 3.609375,105.88672 1.015625,99.851562 0.0273438,91.972656 V 77.199219 C 0.519531,74.488281 2.003906,72.273438 4.476562,70.550781 h 0.371094 l 7.046875,-2.585937 1.113281,-16.621094 4.820313,-16.992188 7.417969,-12.558593 c 5.4375,-7.386719 12.855468,-13.050781 22.25,-16.992188 V 4.433594 L 54.542969,2.214844 70.859375,0 71.972656,0.371094 H 75.3125 c 2.472656,0 4.449219,0.859375 5.933594,2.582031 1.976562,1.726563 2.964844,3.820313 2.964844,6.28125 v 3.695313 l 4.453124,-1.480469 2.222657,0.371093 c 13.597661,2.953126 22.871091,9.109376 27.816411,18.46875"
       id="path2"
       inkscape:connector-curvature="0" />
  </g>
</svg>

<?xml version="1.0" encoding="UTF-8"?>
<svg xmlns="http://www.w3.org/2000/svg" xmlns:xlink="http://www.w3.org/1999/xlink" width="128pt" height="164pt" viewBox="0 0 128 164" version="1.1">
<g id="surface1">
<path style=" stroke:none;fill-rule:nonzero;fill:rgb(100%,100%,100%);fill-opacity:1;" d="M 64.554688 124.847656 L 69.75 123.371094 L 72.34375 124.109375 L 90.515625 124.109375 L 90.515625 137.40625 L 71.230469 137.40625 L 67.894531 139.621094 L 67.894531 139.253906 L 65.296875 136.296875 L 66.78125 132.234375 L 69.75 133.34375 L 86.066406 133.34375 L 86.066406 128.171875 L 69.007812 128.171875 L 54.542969 131.125 C 55.039062 130.632812 55.65625 127.1875 56.398438 120.785156 C 57.140625 121.277344 57.632812 123 57.878906 125.953125 L 59.734375 126.695312 L 64.554688 124.847656 M 64.925781 76.089844 C 65.917969 76.089844 66.410156 77.445312 66.410156 80.152344 L 67.894531 84.585938 C 68.386719 87.539062 67.523438 90.003906 65.296875 91.972656 C 60.847656 95.914062 54.542969 97.882812 46.382812 97.882812 L 45.640625 97.882812 C 42.429688 97.636719 39.089844 96.28125 35.628906 93.820312 L 35.257812 93.449219 L 31.179688 87.910156 C 30.4375 85.203125 30.929688 82.738281 32.660156 80.523438 L 35.628906 77.566406 L 34.515625 77.566406 L 33.402344 77.9375 L 30.4375 78.304688 C 28.457031 78.304688 28.210938 77.8125 29.695312 76.828125 L 34.144531 74.613281 L 38.597656 73.136719 L 41.5625 73.875 L 47.496094 74.613281 L 64.554688 76.089844 L 64.925781 76.089844 M 75.3125 9.234375 L 70.859375 8.863281 L 56.769531 10.710938 L 50.835938 12.558594 C 42.921875 16.253906 36.742188 21.175781 32.292969 27.332031 L 26.355469 38.046875 L 21.90625 52.820312 L 20.792969 62.054688 L 20.792969 75.722656 L 23.019531 91.234375 L 30.808594 116.351562 L 37.484375 127.0625 C 40.449219 131.25 42.304688 134.820312 43.046875 137.773438 C 44.28125 142.207031 46.753906 146.269531 50.464844 149.964844 L 56.769531 154.765625 L 70.121094 155.136719 L 71.230469 155.136719 L 74.570312 148.855469 L 75.3125 155.136719 L 92.371094 154.765625 L 95.707031 151.441406 L 98.304688 141.46875 C 98.550781 137.773438 100.53125 132.109375 104.238281 124.476562 C 107.699219 117.335938 110.667969 112.535156 113.140625 110.070312 C 114.871094 108.59375 115.363281 104.65625 114.621094 98.253906 L 114.253906 97.144531 L 112.398438 97.144531 C 109.429688 100.097656 105.847656 101.578125 101.644531 101.578125 C 97.6875 101.578125 94.226562 100.34375 91.257812 97.882812 L 86.808594 118.9375 L 72.34375 118.9375 L 69.007812 117.089844 L 66.039062 115.613281 L 63.445312 116.722656 L 60.105469 114.875 L 60.847656 111.550781 L 63.074219 110.070312 L 63.445312 110.441406 C 61.960938 111.671875 61.589844 113.148438 62.332031 114.875 C 62.824219 113.890625 63.816406 113.394531 65.296875 113.394531 L 66.78125 113.394531 C 68.511719 115.613281 70.984375 116.722656 74.199219 116.722656 L 79.019531 114.136719 L 79.019531 86.800781 C 79.019531 79.414062 83.097656 74.734375 91.257812 72.765625 L 112.398438 71.65625 L 118.703125 71.65625 L 118.332031 56.882812 C 117.09375 48.265625 114.621094 40.753906 110.914062 34.351562 C 107.207031 27.457031 99.789062 22.777344 88.664062 20.316406 L 89.035156 59.835938 L 86.808594 65.746094 C 85.078125 67.226562 83.222656 67.964844 81.246094 67.964844 L 74.941406 67.964844 L 75.3125 9.234375 M 118.703125 30.289062 L 121.296875 35.089844 C 124.265625 41.492188 126.242188 48.386719 127.230469 55.773438 L 127.972656 64.269531 L 127.972656 69.070312 L 126.863281 74.980469 C 125.871094 77.691406 124.019531 79.539062 121.296875 80.523438 L 117.960938 80.523438 L 118.703125 84.585938 L 117.960938 89.386719 L 121.296875 91.972656 L 122.039062 92.710938 L 123.523438 97.144531 L 123.523438 97.882812 L 123.894531 107.117188 L 121.296875 114.136719 L 119.074219 116.722656 C 117.34375 118.199219 114.992188 122.136719 112.027344 128.539062 C 108.8125 134.941406 107.207031 139.375 107.207031 141.835938 C 106.957031 147.992188 105.476562 153.289062 102.753906 157.722656 C 100.035156 161.660156 96.699219 163.628906 92.742188 163.628906 L 75.3125 164 L 73.457031 163.628906 L 71.230469 164 L 70.121094 164 L 54.542969 163.261719 L 43.046875 155.503906 C 38.84375 150.578125 36 145.410156 34.515625 139.992188 L 28.953125 130.386719 L 22.648438 120.414062 L 22.277344 119.304688 L 18.941406 119.304688 L 13.378906 117.828125 L 10.039062 113.394531 L 7.8125 110.070312 C 3.609375 105.886719 1.015625 99.851562 0.0273438 91.972656 L 0.0273438 77.199219 C 0.519531 74.488281 2.003906 72.273438 4.476562 70.550781 L 4.847656 70.550781 L 11.894531 67.964844 L 13.007812 51.34375 L 17.828125 34.351562 L 25.246094 21.792969 C 30.683594 14.40625 38.101562 8.742188 47.496094 4.800781 L 47.496094 4.433594 L 54.542969 2.214844 L 70.859375 0 L 71.972656 0.371094 L 75.3125 0.371094 C 77.785156 0.371094 79.761719 1.230469 81.246094 2.953125 C 83.222656 4.679688 84.210938 6.773438 84.210938 9.234375 L 84.210938 12.929688 L 88.664062 11.449219 L 90.886719 11.820312 C 104.484375 14.773438 113.757812 20.929688 118.703125 30.289062 "/>
</g>
</svg>
